!!!!SEGMENT: pl-wtm--r-2590_hertz-michal--moderato-na-kwartet-smyczkowy.krn
!!!cenid: 18xx:3130
!!!COM: Hertz, Michał
!!!COM-rismID:
!!!CDT: 1844/09/28-~1918
!!!CNT: Polish
!!!OTL: Moderato na kwartet smyczkowy
!!!PDT:
!!!AGN:
!!!SMS-siglum: PL-Wtm
!!!SMS-shelfmark: R 2590
!!!SMS-shelfwork: W
!!!SMS-variant:
!!!SMS-altvar:
!!!NIFC-rismSourceID: 1001083165
!!!NIFC-islandoraID:
!!!URL-pdf-islandora:
!!!URL-scan:
!!!ONB-nifc:
!!!OMD: Moderato.
!!!AIN: 1 cello 1 viola 2 violn
!!!key: B
**kern	**dynam	**kern	**dynam	**kern	**dynam	**kern	**dynam
*part4	*part4	*part3	*part3	*part2	*part2	*part1	*part1
*staff4	*	*staff3	*	*staff2	*	*staff1	*
*I"Cello Basso	*	*I"Viola	*	*I"Viol 2	*	*I"Viol 1.	*
*Icello	*	*Iviola	*	*Ivioln	*	*Ivioln	*
*ICstr	*	*ICstr	*	*ICstr	*	*ICstr	*
*clefF4	*	*clefC3	*	*clefG2	*	*clefG2	*
*k[f#c#g#d#a#]	*	*k[f#c#g#d#a#]	*	*k[f#c#g#d#a#]	*	*k[f#c#g#d#a#]	*
*B:	*	*B:	*	*B:	*	*B:	*
*M4/4	*	*M4/4	*	*M4/4	*	*M4/4	*
*met(c)	*	*met(c)	*	*met(c)	*	*met(c)	*
*all\right	*	*all\right	*	*all\right	*	*all\right	*
*>[A,A,B,B,A,A,C,A,A]	*	*	*	*	*	*	*
=1	=1	=1	=1	=1	=1	=1	=1
*>A	*	*>A	*	*>A	*	*>A	*
*^	*	*	*	*	*	*	*
!	!	!	!	!	!	!	!	!LO:DY:rj
4BB/	4BB\	p	4r	p	4r	p	(4f#/	p
4r	4ryy	.	4F#\ 4d#	.	4B/	.	8g#/L)	.
.	.	.	.	.	.	.	8a#/J	.
4D#/	4D#\	.	4r	.	4r	.	(4b\	.
4r	4ryy	.	4F#\ 4d#	.	4B/	.	8cc#\L)	.
.	.	.	.	.	.	.	8dd#\J	.
=2	=2	=2	=2	=2	=2	=2	=2	=2
4C#/	4C#\	.	4r	.	4r	.	(8ff#\L	.
.	.	.	.	.	.	.	8ee\)	.
4r	4ryy	.	4F#\ 4e	.	4A#X/	.	8dd#'\	.
.	.	.	.	.	.	.	8cc#'\J	.
4BB/	4BB\	.	4r	.	4r	.	(4dd#\	.
4r	4ryy	.	4F#\ 4d#	.	4B/	.	4b\)	.
=3	=3	=3	=3	=3	=3	=3	=3	=3
[1f#^	4A#\	.	4r	.	4r	.	(4ee\	.
.	4r	.	4F#\ 4e	.	4c#/	.	4cc#\)	.
.	4B\	.	4r	.	4r	.	(4dd#\	.
.	4r	.	4F#\ 4d#	.	4B/	.	4b\)	.
=4	=4	=4	=4	=4	=4	=4	=4	=4
2f#/]	4F#\	.	4r	.	4r	.	(8cc#\L	.
.	.	.	.	.	.	.	8dd#\)	.
.	4r	.	4F#\ 4c#	.	4A#/	.	8cc#'\	.
.	.	.	.	.	.	.	8b'\J	.
.	.	.	.	.	.	.	(<16qqcc#/LL	.
.	.	.	.	.	.	.	16qqb/JJ	.
*	*	*	*2\right	*	*	*	*	*
8F#/L	(8F#\L	.	2e\	.	2A#/ 2f#	.	2cc#\)	.
8E/	8E\)	.	.	.	.	.	.	.
8D#/	8D#'\	.	.	.	.	.	.	.
8C#/J	8C#'\J	.	.	.	.	.	.	.
*v	*v	*	*	*	*	*	*	*
=5	=5	=5	=5	=5	=5	=5	=5
*^	*	*	*	*	*	*	*
!	!	!	!	!	!	!	!	!LO:DY:rj
4BB/yy	4BB\yy	py	4ryy	py	4ryy	py	(4f#/yy	py
4ryy	4ryy	.	4F#\yy 4d#yy	.	4B/yy	.	8g#/L)yy	.
.	.	.	.	.	.	.	8a#/Jyy	.
4D#/yy	4D#\yy	.	4ryy	.	4ryy	.	(4b\yy	.
4ryy	4ryy	.	4F#\yy 4d#yy	.	4B/yy	.	8cc#\L)yy	.
.	.	.	.	.	.	.	8dd#\Jyy	.
=6	=6	=6	=6	=6	=6	=6	=6	=6
4C#/yy	4C#\yy	.	4ryy	.	4ryy	.	(8ff#\Lyy	.
.	.	.	.	.	.	.	8ee\)yy	.
4ryy	4ryy	.	4F#\yy 4eyy	.	4A#X/yy	.	8dd#'\yy	.
.	.	.	.	.	.	.	8cc#'\Jyy	.
4BB/yy	4BB\yy	.	4ryy	.	4ryy	.	(4dd#\yy	.
4ryy	4ryy	.	4F#\yy 4d#yy	.	4B/yy	.	4b\)yy	.
!!LO:LB:g=original
=7	=7	=7	=7	=7	=7	=7	=7	=7
(16qqf#/LL	.	.	.	.	.	.	.	.
16qqg#/JJ)	.	.	.	.	.	.	.	.
[1f#	4A#\	.	4r	.	4r	.	(4ee\	.
.	4r	.	4F#\ 4e	.	4A#/	.	4cc#\)	.
.	4B\	.	4r	.	4r	.	(4dd#\	.
.	4r	.	4F#\ 4d#	.	4B/	.	4b\)	.
=8	=8	=8	=8	=8	=8	=8	=8	=8
4f#/]	4F#\	.	4r	.	4r	.	(8gg#\L	.
.	.	.	.	.	.	.	8a#\)	.
4F#/	4r	.	4e\	.	4A#/ 4f#	.	8b'\	.
.	.	.	.	.	.	.	8cc#'\J	.
.	.	.	(16qqd#/LL	.	.	.	.	.
!	!	!	!	!	!	!	!LO:TX:b:i:t=Fine	!
.	.	.	16qqe/JJ	.	.	.	.	.
*	*	*	*	*	*	*	*2\right	*
8B/L	(8B\L	.	2d#\)	.	2B/ 2f#	.	2b\	.
8F#/J	8F#\J	.	.	.	.	.	.	.
4BB/	4BB\)	.	.	.	.	.	.	.
=9:|!|:	=9:|!|:	=9:|!|:	=9:|!|:	=9:|!|:	=9:|!|:	=9:|!|:	=9:|!|:	=9:|!|:
*>B	*>B	*	*>B	*	*>B	*	*>B	*
4FF#/	4FF#\	.	4r	.	4r	.	8a#'\L	.
.	.	.	.	.	.	.	8b'\J	.
4r	4ryy	.	4A#\ 4f#	.	4c#/	.	[4cc#\	.
4AA#/	4AA#\	.	4r	.	4r	.	(8cc#\L]	.
.	.	.	.	.	.	.	8dd#\)	.
4r	4ryy	.	4A#\ 4f#	.	4c#/	.	8ee#X'\	.
.	.	.	.	.	.	.	8ff#'\J	.
=10	=10	=10	=10	=10	=10	=10	=10	=10
4C#/	4C#\	.	4r	.	4r	.	8ff##X'\L	.
.	.	.	.	.	.	.	8gg#'\J	.
4r	4ryy	.	4B\ 4e#X	.	4c#/	.	([4aa#\	.
4GG#/	4GG#\	.	4r	.	4r	.	8.aa#\L]	.
.	.	.	.	.	.	.	16gg#\Jk	.
!	!	!	!	!	!	!	!LO:N:acc=n#	!
4r	4ryy	.	4B\ 4e#	.	4c#/	.	16ff#X\LL	.
.	.	.	.	.	.	.	16ee\)	.
.	.	.	.	.	.	.	16dd#'\	.
.	.	.	.	.	.	.	16cc#'\JJ	.
*v	*v	*	*	*	*	*	*	*
=11	=11	=11	=11	=11	=11	=11	=11
4E#X\	.	4r	.	4r	.	4dd#'\	.
.	.	.	.	.	.	(<16qqe#X/LL	.
.	.	.	.	.	.	16qqf#/JJ	.
4r	.	4G#\ 4c#	.	4B/	.	4e#/)	.
4E#\	.	4r	.	4r	.	4ddn'\	.
.	.	.	.	.	.	(<16qqe#/LL	.
.	.	.	.	.	.	16qqf#/JJ	.
4r	.	4G#\ 4c#	.	4B/	.	4e#/)	.
=12	=12	=12	=12	=12	=12	=12	=12
4C#/	.	4r	.	4r	.	4ee#X~\	.
.	.	.	.	.	.	(<16qqdd#/LL	.
.	.	.	.	.	.	16qqee#/JJ)	.
4r	.	4B\ 4e#X	.	4c#/	.	4dd#~\	.
(8c#\L	.	4e#\	.	4b\	.	4cc#~\	.
8B#X\	.	.	.	.	.	.	.
8Bn\	.	4r	.	4r	.	4r	.
8G#\J)	.	.	.	.	.	.	.
!!LO:LB:g=original
=13	=13	=13	=13	=13	=13	=13	=13
*^	*	*	*	*	*	*	*
4FF#/yy	4FF#\yy	.	4ryy	.	4ryy	.	8a#'\Lyy	.
.	.	.	.	.	.	.	8b'\Jyy	.
4ryy	4ryy	.	4A#\yy 4f#yy	.	4c#/yy	.	[4cc#\yy	.
4AA#/yy	4AA#\yy	.	4ryy	.	4ryy	.	(8cc#\L]yy	.
.	.	.	.	.	.	.	8dd#\)yy	.
4ryy	4ryy	.	4A#\yy 4f#yy	.	4c#/yy	.	8ee#X'\yy	.
.	.	.	.	.	.	.	8ff#'\Jyy	.
=14	=14	=14	=14	=14	=14	=14	=14	=14
4C#/yy	4C#\yy	.	4ryy	.	4ryy	.	8ff##X'\Lyy	.
.	.	.	.	.	.	.	8gg#'\Jyy	.
4ryy	4ryy	.	4B\yy 4e#Xyy	.	4c#/yy	.	([4aa#\yy	.
4GG#/yy	4GG#\yy	.	4ryy	.	4ryy	.	8.aa#\L]yy	.
.	.	.	.	.	.	.	16gg#\Jkyy	.
!	!	!	!	!	!	!	!LO:N:acc=n#	!
4ryy	4ryy	.	4B\yy 4e#yy	.	4c#/yy	.	16ff#X\LLyy	.
.	.	.	.	.	.	.	16ee\)yy	.
.	.	.	.	.	.	.	16dd#'\yy	.
.	.	.	.	.	.	.	16cc#'\JJyy	.
*v	*v	*	*	*	*	*	*	*
=15	=15	=15	=15	=15	=15	=15	=15
4E#X\yy	.	4ryy	.	4ryy	.	4dd#'\yy	.
.	.	.	.	.	.	(<16qqe#X/LLyy	.
.	.	.	.	.	.	16qqf#/JJyy	.
4ryy	.	4G#\yy 4c#yy	.	4B/yy	.	4e#/)yy	.
4E#\yy	.	4ryy	.	4ryy	.	4ddn'\yy	.
.	.	.	.	.	.	(<16qqe#/LLyy	.
.	.	.	.	.	.	16qqf#/JJyy	.
4ryy	.	4G#\yy 4c#yy	.	4B/yy	.	4e#/)yy	.
=16	=16	=16	=16	=16	=16	=16	=16
4.C#\	.	(8c#\L	.	4.e#X/	.	4ee#X\	.
.	.	8B#X\)	.	.	.	.	.
.	.	.	.	.	.	(16qqdd#/LL	.
.	.	.	.	.	.	16qqee#/JJ	.
.	.	8Bn'\	.	.	.	8dd#\L)	.
8E#X\	.	8G#\J	.	8c#\ 8g#	.	8cc#\J	.
(8F#\L	.	4A#/	.	4c#\ 4f#	.	4ff#\	.
8E#\)	.	.	.	.	.	.	.
!	!	!	!	!	!	!LO:TX:b:i:t=D.C.al Fine\ne poi Trio.	!
8En'\	.	4r	.	4r	.	4r	.
8C#\J	.	.	.	.	.	.	.
!!LO:PB:g=original
=17:|!	=17:|!	=17:|!	=17:|!	=17:|!	=17:|!	=17:|!	=17:|!
*>C	*	*>C	*	*>C	*	*>C	*
*k[f#c#g#d#]	*	*k[f#c#g#d#]	*	*k[f#c#g#d#]	*	*k[f#c#g#d#]	*
!	!	!	!	!	!	!LO:TX:a:t=Trio.	!
.	.	.	.	.	.	(8qg#/	p
4E\	p	4r	p	4r	p	2b~\)	.
4r	.	4G#\ 4e	.	4B/	.	.	.
.	.	.	.	.	.	(8qg#/	.
4GG#/	.	4r	.	4r	.	[2ee~\)	.
4r	.	4G#\ 4e	.	4B/	.	.	.
=18	=18	=18	=18	=18	=18	=18	=18
4FF#/	.	4r	.	4r	.	(8ee\L]	.
.	.	.	.	.	.	8dd#\)	.
4r	.	4A\ 4d#	.	4B/	.	8ff#'\	.
.	.	.	.	.	.	8ee'\J	.
4BB/	.	4r	.	4r	.	2dd#\	.
4r	.	4A\ 4d#	.	4B/	.	.	.
=19	=19	=19	=19	=19	=19	=19	=19
.	.	.	.	.	.	(8qf#/	.
4BB/	.	4r	.	4r	.	2a/)	.
4r	.	4A\ 4d#	.	4B/	.	.	.
.	.	.	.	.	.	(8qa/	.
4D#\	.	4r	.	4r	.	[2cc#\)	.
4r	.	4A\ 4d#	.	4B/	.	.	.
=20	=20	=20	=20	=20	=20	=20	=20
4E\	.	4r	.	4r	.	(8cc#\L]	.
.	.	.	.	.	.	8b\)	.
4r	.	4G#\ 4e	.	4B/	.	8dd#'\	.
.	.	.	.	.	.	8cc#'\J	.
4GG#/	.	4r	.	4r	.	2b\	.
4r	.	4G#\ 4e	.	4B/	.	.	.
=21	=21	=21	=21	=21	=21	=21	=21
.	.	.	.	.	.	(8qe/	.
4C#/	.	4r	.	4r	.	2g#/)	.
4r	.	4G#\ 4e	.	4c#/	.	.	.
.	.	.	.	.	.	(8qg#/	.
4GG#/	.	4r	.	4r	.	([2b\)	.
4r	.	4G#\ 4e	.	4B/	.	.	.
=22	=22	=22	=22	=22	=22	=22	=22
4FF#/	.	4r	.	2c#/	.	8b\L]	.
.	.	.	.	.	.	8a\)	.
4F#\	.	4A\ 4f#	.	.	.	8g#'\	.
.	.	.	.	.	.	8a'\J	.
4AA/	.	4r	.	(<4.f#/	.	(4.dd#\	.
4A\	.	4c#\ 4a	.	.	.	.	.
.	.	.	.	8e/)	.	8cc#\)	.
=23	=23	=23	=23	=23	=23	=23	=23
4BB/	.	4r	.	4d#/	.	(8b\L	.
.	.	.	.	.	.	8f#\)	.
4r	.	4A/ 4B	.	2.d#/	.	8e#X'\	.
.	.	.	.	.	.	8f#'\J	.
4BB/	.	4r	.	.	.	(>4.a/	.
4r	.	4A/ 4B	.	.	.	.	.
.	.	.	.	.	.	8g#/)	.
!!LO:LB:g=original
=24	=24	=24	=24	=24	=24	=24	=24
*^	*	*	*	*	*	*	*
(4G#\	1rCC	.	(4e\	.	2.B/	.	[2b\	.
8F#\L)	.	.	8d#\L)	.	.	.	.	.
8E\J	.	.	8c#\J	.	.	.	.	.
(<16qqF#/LL	.	.	(<16qqd#/LL	.	.	.	.	.
16qqG#/JJ	.	.	16qqe/JJ	.	.	.	.	.
4F#\)	.	.	4d#\)	.	.	.	(8b\L]	.
.	.	.	.	.	.	.	8a\	.
4BB/	.	.	4B/	.	4d#/	.	8g#'\)	.
.	.	.	.	.	.	.	8f#'\J	.
*v	*v	*	*	*	*	*	*	*
=25	=25	=25	=25	=25	=25	=25	=25
!	!	!	!	!	!	!LO:TX:t=P:problem=ukrycie 8q powoduje błąd VHV	!
.	.	.	.	.	.	(8qg#/	py
4E\yy	py	4ryy	py	4ryy	py	2b~\)yy	.
4ryy	.	4G#\yy 4eyy	.	4B/yy	.	.	.
.	.	.	.	.	.	(8qg#/	.
4GG#/yy	.	4ryy	.	4ryy	.	[2ee~\)yy	.
4ryy	.	4G#\yy 4eyy	.	4B/yy	.	.	.
=26	=26	=26	=26	=26	=26	=26	=26
4FF#/yy	.	4ryy	.	4ryy	.	(8ee\L]yy	.
.	.	.	.	.	.	8dd#\)yy	.
4ryy	.	4A\yy 4d#yy	.	4B/yy	.	8ff#'\yy	.
.	.	.	.	.	.	8ee'\Jyy	.
4BB/yy	.	4ryy	.	4ryy	.	2dd#\yy	.
4ryy	.	4A\yy 4d#yy	.	4B/yy	.	.	.
=27	=27	=27	=27	=27	=27	=27	=27
.	.	.	.	.	.	(8qf#/	.
4BB/yy	.	4ryy	.	4ryy	.	2a/)yy	.
4ryy	.	4A\yy 4d#yy	.	4B/yy	.	.	.
.	.	.	.	.	.	(8qa/	.
4D#\yy	.	4ryy	.	4ryy	.	[2cc#\)yy	.
4ryy	.	4A\yy 4d#yy	.	4B/yy	.	.	.
=28	=28	=28	=28	=28	=28	=28	=28
4E\yy	.	4ryy	.	4ryy	.	(8cc#\L]yy	.
.	.	.	.	.	.	8b\)yy	.
4ryy	.	4G#\yy 4eyy	.	4B/yy	.	8dd#'\yy	.
.	.	.	.	.	.	8cc#'\Jyy	.
4GG#/yy	.	4ryy	.	4ryy	.	2b\yy	.
4ryy	.	4G#\yy 4eyy	.	4B/yy	.	.	.
=29	=29	=29	=29	=29	=29	=29	=29
.	.	.	.	.	.	(8qe/	.
4C#/yy	.	4ryy	.	4ryy	.	2g#/)yy	.
4ryy	.	4G#\yy 4eyy	.	4c#/yy	.	.	.
.	.	.	.	.	.	(8qg#/	.
4GG#/yy	.	4ryy	.	4ryy	.	([2b\)yy	.
4ryy	.	4G#\yy 4eyy	.	4B/yy	.	.	.
=30	=30	=30	=30	=30	=30	=30	=30
4FF#/yy	.	4ryy	.	2c#/yy	.	8b\L]yy	.
.	.	.	.	.	.	8a\)yy	.
4F#\yy	.	4A\yy 4f#yy	.	.	.	8g#'\yy	.
.	.	.	.	.	.	8a'\Jyy	.
4AA/yy	.	4ryy	.	(<4.f#/yy	.	(4.dd#\yy	.
4A\yy	.	4c#\yy 4ayy	.	.	.	.	.
.	.	.	.	8e/)yy	.	8cc#\)yy	.
=31	=31	=31	=31	=31	=31	=31	=31
4BB/yy	.	4ryy	.	4d#/yy	.	(8b\Lyy	.
.	.	.	.	.	.	8f#\)yy	.
4ryy	.	4A/yy 4Byy	.	2.d#/yy	.	8e#X'\yy	.
.	.	.	.	.	.	8f#'\Jyy	.
4BB/yy	.	4ryy	.	.	.	(>4.a/yy	.
4ryy	.	4A/yy 4Byy	.	.	.	.	.
.	.	.	.	.	.	8g#/)yy	.
=32	=32	=32	=32	=32	=32	=32	=32
(4E\	.	4G#/ 4B	.	4G#/ 4e	.	(4e/	.
8BB\L)	.	8B\L	.	8e/L	.	8g#/L)	.
8G#\J	.	8G#\J 8B	.	8e/J	.	8b/J	.
!	!	!	!	!	!	!LO:TX:b:i:t=D.C \nal \nFine	!
2E\	.	2B/	.	2g#/	.	2ee\	.
=:|!	=:|!	=:|!	=:|!	=:|!	=:|!	=:|!	=:|!
*-	*-	*-	*-	*-	*-	*-	*-
!!!system-decoration: {(s1,s2)}(s3,s4)
!!!RDF**kern: < = below
!!!RDF**kern: > = above
!!!ENC: Anastazja Marusiak
!!!END: 2021-11-07
!!!ENC: Marta Chmielewska
!!!END: 2021-11-09
